X:1
T: Johnnie, Come Kiss me now
C:
R:Reel
Q: 232
K:G
M:4/4
L:1/8
|:dB|G2 GA B2 AG|c2 c2 c2 BA|G2 GA B2 Bc|d2 d2 dc BA|
G2 GA B2 AG|c2 c2 c2 de|d2 dc B2 Ac|B2 G2 G2:|
|:Bd|g2 g2 gf ed|c2 c2 c2 e2|a2 a2 ag fe|f2 d2 d2 ef|
g2 g2 gf ed|c2 c2 c2 de|d2 cB A2 f2|g2 G2 G2:|
